X: 994
T: Twinkle, Twinkle Little Star
C:Kenny Baker version
B: jims roots
M:4/4
L:1/8
Q: 1/4=100
K:G
V:1 
B,A, | "G"G,B,DG EFGA | BGAc BGAG | "C"ECEG cGE2 | "G"D6 B,A, |
"G"G,B,DG EFGA | BGAc BAGB | "A"A^ceg fdec | "D"dBAG FEDB, ||
"G"G,B,DG EFGA | BGAc BAG=F | "C"ECEG cGEG | "G"D6 B,A, |
"G"G,B,DG EFGA | BABc dBcB | "D"AGFE DCB,A, |"G"G,6 Bc ||
"G"d^cde dBGA | BABc BAG=F | "C"ECEG cGE2 | "G"D6 Bc |
"G"d^cde dBGA | BGAc BAGB | "A"AB^cd efec | "D"dBAF D4 ||
"G"D2"3"d'2 =b3d' | b"3"g"0"ef gedB | "C"cBcd efge | "G"d6 BA |
"G"GBdg efga | bgag efge |"D"fafe defa | "G"g6 Bc ||
"G"d^cde d=cBc | d^cde d4 | "2"d'2^c'd'e'2d'e' | "D"d'2c'2 c'2AB |
"D"cBcd cBAB | cBcd c4 | "2"d'2^c'd'e'2d'e' | "G"d'2b2 b2ef |
"G"gfgb gedc | BGAF GE=FD | "C"ECEG cGE2 | "G"D6 B,A, |
"G"G,B,DG EFGA | BABc dBcB | "D"AGFE DCB,A, | "G"G,6 |]
% abcbook-tune_id 6298c2970809c325bad660d2


% abcbook-boost 0
% abcbook-tablature 
% abcbook-transpose 
% abcbook-lastupdated 1654178456464
% abcbook-soundfonts 
% abcbook-repeats 1


